X: 188
T:Itchy Fingers
M:4/4
L:1/8
F:http://blackrosetheband.googlepages.com/ABCTUNES.ABC May 2009
C:Composer: Pipe Major Rab Pinkman
S:Source: Angus Sessions Podcast
R:Reel
K:A
cd|:"A"e2ef eAce|"D"fAdf "A"e2cd|e2ef eAce|cAdc "E"B2cd|
"A"e2ef eAce|"D"fAdf "A"e2ce|"D"dc cB "E"Bfed|1 "A"c2A2A2 cd:|2 "A"c2A2A2 ce||
|"A"a2 (Aa) caAa|"D"fAdf "A"e2ce|a2 Aa caAa|cAdc "E"B2 ce|
"A"a2 (Aa) caAa|"D"fAdf "A"e2ce|"D"dc cB "E"BfeB|"A"c2A2A2 ce|
"A"a2 Aa caAa|"D"fAdf "A"e2ce|a2 Aa caAa|cAdc "E"B2 cd|
"A"e2ef eAce|"D"fAdf "A"e2ce|"D"dc cB "E"Bfed|"A"c2A2A2 cd||

